T: Wandering Minstrel March, The
M: 4/4
L: 1/8
K: Dmaj
d2 A2 d2 f2 | edcB A2 g2 | f2 df gece | d3 c A2 fe |d2 A2 d2 f2 | edcB A2 g2 | f2 df gece | d4 d2 z ||f2 a2 d2 fa | gfed c2 (3Bcd | e3 f gece | d3 c A2 fe |d2 A2 d2 f2 | edcB A2 g2 | f2 df gece | d4 d2 ||
